X:1
T:Redcliff, 88.84
T:Redcliff, 88.84
T:Edward John Hopkins, 1863
T:Public Domain Courtesy of the Cyber Hymnal™
C:Edward John Hopkins, 1863
Z:Public Domain
Z:Courtesy of the Cyber Hymnal™
%%score ( 1 2 ) ( 3 4 )
L:1/8
Q:1/4=110
M:4/4
K:C
V:1 treble 
V:2 treble 
V:3 bass 
V:4 bass 
V:1
 [EG]2 | [Ec]2 [FB]2 [Gc]2 [EG]2 | [FA]2 [FA]2 [EG]2 G2 | [GA]2 [GB]2 c2 [GB]2 | d3 z c [GB]2 G2 | %5
 [FA]2 [FB]2 [Ec]2 [EB]2 | [Ec]2 [Ad]2 [^Ge]4 | [Ad]2 [Fc]2 B4 | [Ec]6 |] %9
V:2
 x2 | x8 | x6 G2 | x4 (E^F) x2 | G2 (^F2 x G2) x2 | x8 | x8 | x4 (G2 F2) | x6 |] %9
V:3
 [C,G,]2 | [C,G,]2 [D,G,]2 [E,G,]2 [C,C]2 | [F,C]2 [A,C]2 C2 [C,E]2 | [CE]2 [B,D]2 [A,C]2 [E,G,]2 | %4
 A,2 z [G,D]2 [E,C]2 x2 | [F,C]2 [D,D]2 [A,C]2 [^G,E]2 | [A,C]2 [F,A,]2 [E,B,]4 | %7
 [F,A,]2 [A,C]2 [G,D]4 | [C,C]6 |] %9
V:4
 x2 | x8 | x4 C2 x2 | x8 | D,3 (D2 D,) x3 | x8 | x8 | x8 | x6 |] %9

